images/50907411.svg

<?xml version="1.0" encoding="UTF-8"?>
<svg xmlns="http://www.w3.org/2000/svg" xmlns:xlink="http://www.w3.org/1999/xlink" width="300pt" height="300pt" viewBox="0 0 300 300" version="1.1">
<defs>
<g>
<symbol overflow="visible" id="glyph0-0">
<path style="stroke:none;" d="M 0.640625 2.296875 L 0.640625 -9.171875 L 7.140625 -9.171875 L 7.140625 2.296875 Z M 1.375 1.578125 L 6.421875 1.578125 L 6.421875 -8.4375 L 1.375 -8.4375 Z M 1.375 1.578125 "/>
</symbol>
<symbol overflow="visible" id="glyph0-1">
<path style="stroke:none;" d="M 5.125 -8.609375 C 4.1875 -8.609375 3.441406 -8.257812 2.890625 -7.5625 C 2.347656 -6.875 2.078125 -5.929688 2.078125 -4.734375 C 2.078125 -3.535156 2.347656 -2.585938 2.890625 -1.890625 C 3.441406 -1.203125 4.1875 -0.859375 5.125 -0.859375 C 6.050781 -0.859375 6.785156 -1.203125 7.328125 -1.890625 C 7.878906 -2.585938 8.15625 -3.535156 8.15625 -4.734375 C 8.15625 -5.929688 7.878906 -6.875 7.328125 -7.5625 C 6.785156 -8.257812 6.050781 -8.609375 5.125 -8.609375 Z M 5.125 -9.65625 C 6.445312 -9.65625 7.503906 -9.207031 8.296875 -8.3125 C 9.097656 -7.414062 9.5 -6.222656 9.5 -4.734375 C 9.5 -3.234375 9.097656 -2.035156 8.296875 -1.140625 C 7.503906 -0.253906 6.445312 0.1875 5.125 0.1875 C 3.789062 0.1875 2.722656 -0.253906 1.921875 -1.140625 C 1.128906 -2.035156 0.734375 -3.234375 0.734375 -4.734375 C 0.734375 -6.222656 1.128906 -7.414062 1.921875 -8.3125 C 2.722656 -9.207031 3.789062 -9.65625 5.125 -9.65625 Z M 5.125 -9.65625 "/>
</symbol>
<symbol overflow="visible" id="glyph0-2">
<path style="stroke:none;" d="M 1.28125 -9.484375 L 3 -9.484375 L 7.203125 -1.546875 L 7.203125 -9.484375 L 8.453125 -9.484375 L 8.453125 0 L 6.71875 0 L 2.515625 -7.921875 L 2.515625 0 L 1.28125 0 Z M 1.28125 -9.484375 "/>
</symbol>
<symbol overflow="visible" id="glyph0-3">
<path style="stroke:none;" d="M 1.28125 -9.484375 L 2.5625 -9.484375 L 2.5625 -5.59375 L 7.21875 -5.59375 L 7.21875 -9.484375 L 8.5 -9.484375 L 8.5 0 L 7.21875 0 L 7.21875 -4.515625 L 2.5625 -4.515625 L 2.5625 0 L 1.28125 0 Z M 1.28125 -9.484375 "/>
</symbol>
<symbol overflow="visible" id="glyph1-0">
<path style="stroke:none;" d="M 0.546875 1.9375 L 0.546875 -7.75 L 6.046875 -7.75 L 6.046875 1.9375 Z M 1.171875 1.328125 L 5.4375 1.328125 L 5.4375 -7.140625 L 1.171875 -7.140625 Z M 1.171875 1.328125 "/>
</symbol>
<symbol overflow="visible" id="glyph1-1">
<path style="stroke:none;" d="M 5.0625 -6.890625 L 5.0625 -3.90625 L 8.046875 -3.90625 L 8.046875 -2.984375 L 5.0625 -2.984375 L 5.0625 0 L 4.15625 0 L 4.15625 -2.984375 L 1.171875 -2.984375 L 1.171875 -3.90625 L 4.15625 -3.90625 L 4.15625 -6.890625 Z M 5.0625 -6.890625 "/>
</symbol>
<symbol overflow="visible" id="glyph1-2">
<path style="stroke:none;" d="M 0.53125 -3.453125 L 3.4375 -3.453125 L 3.4375 -2.578125 L 0.53125 -2.578125 Z M 0.53125 -3.453125 "/>
</symbol>
</g>
</defs>
<g id="surface12637">
<rect x="0" y="0" width="300" height="300" style="fill:rgb(100%,100%,100%);fill-opacity:1;stroke:none;"/>
<path style="fill:none;stroke-width:1.2;stroke-linecap:butt;stroke-linejoin:miter;stroke:rgb(100%,0%,0%);stroke-opacity:1;stroke-miterlimit:10;" d="M 222.464844 227.664062 L 217.910156 212.035156 "/>
<path style="fill:none;stroke-width:1.2;stroke-linecap:butt;stroke-linejoin:miter;stroke:rgb(0%,0%,0%);stroke-opacity:1;stroke-miterlimit:10;" d="M 217.910156 212.035156 L 213.355469 196.410156 "/>
<path style="fill:none;stroke-width:1.2;stroke-linecap:butt;stroke-linejoin:miter;stroke:rgb(0%,0%,0%);stroke-opacity:1;stroke-miterlimit:10;" d="M 195.554688 245.984375 L 209.011719 236.824219 "/>
<path style="fill:none;stroke-width:1.2;stroke-linecap:butt;stroke-linejoin:miter;stroke:rgb(100%,0%,0%);stroke-opacity:1;stroke-miterlimit:10;" d="M 209.011719 236.824219 L 222.464844 227.664062 "/>
<path style=" stroke:none;fill-rule:nonzero;fill:rgb(100%,100%,100%);fill-opacity:1;" d="M 217.464844 219.664062 L 228.464844 219.664062 L 228.464844 235.664062 L 217.464844 235.664062 Z M 217.464844 219.664062 "/>
<g style="fill:rgb(100%,0%,0%);fill-opacity:1;">
  <use xlink:href="#glyph0-1" x="217.464844" y="232.040039"/>
</g>
<path style="fill:none;stroke-width:1.2;stroke-linecap:butt;stroke-linejoin:miter;stroke:rgb(0%,0%,0%);stroke-opacity:1;stroke-miterlimit:10;" d="M 213.355469 196.410156 L 230.488281 168.726562 "/>
<path style="fill:none;stroke-width:1.2;stroke-linecap:butt;stroke-linejoin:miter;stroke:rgb(0%,0%,0%);stroke-opacity:1;stroke-miterlimit:10;" d="M 208.554688 189.609375 L 222.261719 167.464844 "/>
<path style="fill:none;stroke-width:1.2;stroke-linecap:butt;stroke-linejoin:miter;stroke:rgb(0%,0%,0%);stroke-opacity:1;stroke-miterlimit:10;" d="M 180.816406 195.414062 L 213.355469 196.410156 "/>
<path style="fill:none;stroke-width:1.2;stroke-linecap:butt;stroke-linejoin:miter;stroke:rgb(0%,0%,0%);stroke-opacity:1;stroke-miterlimit:10;" d="M 230.488281 168.726562 L 215.078125 140.046875 "/>
<path style="fill:none;stroke-width:1.2;stroke-linecap:butt;stroke-linejoin:miter;stroke:rgb(0%,0%,0%);stroke-opacity:1;stroke-miterlimit:10;" d="M 215.078125 140.046875 L 182.539062 139.054688 "/>
<path style="fill:none;stroke-width:1.2;stroke-linecap:butt;stroke-linejoin:miter;stroke:rgb(0%,0%,0%);stroke-opacity:1;stroke-miterlimit:10;" d="M 211.589844 147.605469 L 185.558594 146.808594 "/>
<path style="fill:none;stroke-width:1.2;stroke-linecap:butt;stroke-linejoin:miter;stroke:rgb(0%,0%,0%);stroke-opacity:1;stroke-miterlimit:10;" d="M 215.078125 140.046875 L 232.210938 112.367188 "/>
<path style="fill:none;stroke-width:1.2;stroke-linecap:butt;stroke-linejoin:miter;stroke:rgb(0%,0%,0%);stroke-opacity:1;stroke-miterlimit:10;" d="M 182.539062 139.054688 L 165.410156 166.734375 "/>
<path style="fill:none;stroke-width:1.2;stroke-linecap:butt;stroke-linejoin:miter;stroke:rgb(0%,0%,0%);stroke-opacity:1;stroke-miterlimit:10;" d="M 167.132812 110.375 L 182.539062 139.054688 "/>
<path style="fill:none;stroke-width:1.2;stroke-linecap:butt;stroke-linejoin:miter;stroke:rgb(0%,0%,0%);stroke-opacity:1;stroke-miterlimit:10;" d="M 165.410156 166.734375 L 132.867188 165.742188 "/>
<path style="fill:none;stroke-width:1.2;stroke-linecap:butt;stroke-linejoin:miter;stroke:rgb(0%,0%,0%);stroke-opacity:1;stroke-miterlimit:10;" d="M 165.410156 166.734375 L 180.816406 195.414062 "/>
<path style="fill:none;stroke-width:1.2;stroke-linecap:butt;stroke-linejoin:miter;stroke:rgb(0%,0%,0%);stroke-opacity:1;stroke-miterlimit:10;" d="M 173.695312 165.976562 L 186.023438 188.921875 "/>
<path style="fill:none;stroke-width:1.2;stroke-linecap:butt;stroke-linejoin:miter;stroke:rgb(0%,0%,0%);stroke-opacity:1;stroke-miterlimit:10;" d="M 132.867188 165.742188 L 117.460938 137.0625 "/>
<path style="fill:none;stroke-width:1.2;stroke-linecap:butt;stroke-linejoin:miter;stroke:rgb(0%,0%,0%);stroke-opacity:1;stroke-miterlimit:10;" d="M 124.582031 166.5 L 112.253906 143.558594 "/>
<path style="fill:none;stroke-width:1.2;stroke-linecap:butt;stroke-linejoin:miter;stroke:rgb(0%,0%,0%);stroke-opacity:1;stroke-miterlimit:10;" d="M 115.738281 193.425781 L 132.867188 165.742188 "/>
<path style="fill:none;stroke-width:1.2;stroke-linecap:butt;stroke-linejoin:miter;stroke:rgb(0%,0%,0%);stroke-opacity:1;stroke-miterlimit:10;" d="M 117.460938 137.0625 L 134.589844 109.382812 "/>
<path style="fill:none;stroke-width:1.2;stroke-linecap:butt;stroke-linejoin:miter;stroke:rgb(0%,0%,0%);stroke-opacity:1;stroke-miterlimit:10;" d="M 117.460938 137.0625 L 84.921875 136.070312 "/>
<path style="fill:none;stroke-width:1.2;stroke-linecap:butt;stroke-linejoin:miter;stroke:rgb(0%,0%,0%);stroke-opacity:1;stroke-miterlimit:10;" d="M 134.589844 109.382812 L 167.132812 110.375 "/>
<path style="fill:none;stroke-width:1.2;stroke-linecap:butt;stroke-linejoin:miter;stroke:rgb(0%,0%,0%);stroke-opacity:1;stroke-miterlimit:10;" d="M 137.613281 117.136719 L 163.644531 117.933594 "/>
<path style="fill:none;stroke-width:1.2;stroke-linecap:butt;stroke-linejoin:miter;stroke:rgb(0%,0%,0%);stroke-opacity:1;stroke-miterlimit:10;" d="M 167.132812 110.375 L 175.695312 96.535156 "/>
<path style="fill:none;stroke-width:1.2;stroke-linecap:butt;stroke-linejoin:miter;stroke:rgb(0%,0%,100%);stroke-opacity:1;stroke-miterlimit:10;" d="M 175.695312 96.535156 L 184.261719 82.691406 "/>
<path style="fill:none;stroke-width:1.2;stroke-linecap:butt;stroke-linejoin:miter;stroke:rgb(0%,0%,100%);stroke-opacity:1;stroke-miterlimit:10;" d="M 184.613281 86.507812 L 195.246094 85.53125 "/>
<path style="fill:none;stroke-width:1.2;stroke-linecap:butt;stroke-linejoin:miter;stroke:rgb(100%,0%,0%);stroke-opacity:1;stroke-miterlimit:10;" d="M 195.246094 85.53125 L 205.882812 84.550781 "/>
<path style="fill:none;stroke-width:1.2;stroke-linecap:butt;stroke-linejoin:miter;stroke:rgb(0%,0%,100%);stroke-opacity:1;stroke-miterlimit:10;" d="M 183.910156 78.878906 L 194.546875 77.902344 "/>
<path style="fill:none;stroke-width:1.2;stroke-linecap:butt;stroke-linejoin:miter;stroke:rgb(100%,0%,0%);stroke-opacity:1;stroke-miterlimit:10;" d="M 194.546875 77.902344 L 205.179688 76.925781 "/>
<path style="fill:none;stroke-width:1.2;stroke-linecap:butt;stroke-linejoin:miter;stroke:rgb(0%,0%,100%);stroke-opacity:1;stroke-miterlimit:10;" d="M 184.261719 82.691406 L 176.558594 68.355469 "/>
<path style="fill:none;stroke-width:1.2;stroke-linecap:butt;stroke-linejoin:miter;stroke:rgb(100%,0%,0%);stroke-opacity:1;stroke-miterlimit:10;" d="M 176.558594 68.355469 L 168.855469 54.015625 "/>
<path style=" stroke:none;fill-rule:nonzero;fill:rgb(100%,100%,100%);fill-opacity:1;" d="M 174.261719 73.191406 L 194.261719 73.191406 L 194.261719 92.191406 L 174.261719 92.191406 Z M 174.261719 73.191406 "/>
<g style="fill:rgb(0%,0%,100%);fill-opacity:1;">
  <use xlink:href="#glyph0-2" x="174.261719" y="88.386719"/>
</g>
<g style="fill:rgb(0%,0%,100%);fill-opacity:1;">
  <use xlink:href="#glyph1-1" x="184.231445" y="83.503906"/>
</g>
<path style=" stroke:none;fill-rule:nonzero;fill:rgb(100%,100%,100%);fill-opacity:1;" d="M 200.53125 72.738281 L 211.53125 72.738281 L 211.53125 88.738281 L 200.53125 88.738281 Z M 200.53125 72.738281 "/>
<g style="fill:rgb(100%,0%,0%);fill-opacity:1;">
  <use xlink:href="#glyph0-1" x="200.53125" y="85.114258"/>
</g>
<path style=" stroke:none;fill-rule:nonzero;fill:rgb(100%,100%,100%);fill-opacity:1;" d="M 153.855469 44.515625 L 168.855469 44.515625 L 168.855469 63.515625 L 153.855469 63.515625 Z M 153.855469 44.515625 "/>
<g style="fill:rgb(100%,0%,0%);fill-opacity:1;">
  <use xlink:href="#glyph1-2" x="153.855469" y="54.828125"/>
</g>
<g style="fill:rgb(100%,0%,0%);fill-opacity:1;">
  <use xlink:href="#glyph0-1" x="157.864258" y="59.710938"/>
</g>
<path style="fill:none;stroke-width:1.2;stroke-linecap:butt;stroke-linejoin:miter;stroke:rgb(0%,0%,0%);stroke-opacity:1;stroke-miterlimit:10;" d="M 84.921875 136.070312 L 77.214844 121.730469 "/>
<path style="fill:none;stroke-width:1.2;stroke-linecap:butt;stroke-linejoin:miter;stroke:rgb(100%,0%,0%);stroke-opacity:1;stroke-miterlimit:10;" d="M 77.214844 121.730469 L 69.511719 107.390625 "/>
<path style="fill:none;stroke-width:1.2;stroke-linecap:butt;stroke-linejoin:miter;stroke:rgb(0%,0%,0%);stroke-opacity:1;stroke-miterlimit:10;" d="M 84.921875 136.070312 L 67.789062 163.753906 "/>
<path style="fill:none;stroke-width:1.2;stroke-linecap:butt;stroke-linejoin:miter;stroke:rgb(0%,0%,0%);stroke-opacity:1;stroke-miterlimit:10;" d="M 89.722656 142.867188 L 76.015625 165.015625 "/>
<path style="fill:none;stroke-width:1.2;stroke-linecap:butt;stroke-linejoin:miter;stroke:rgb(100%,0%,0%);stroke-opacity:1;stroke-miterlimit:10;" d="M 69.511719 107.390625 L 78.078125 93.550781 "/>
<path style="fill:none;stroke-width:1.2;stroke-linecap:butt;stroke-linejoin:miter;stroke:rgb(0%,0%,0%);stroke-opacity:1;stroke-miterlimit:10;" d="M 78.078125 93.550781 L 86.644531 79.710938 "/>
<path style=" stroke:none;fill-rule:nonzero;fill:rgb(100%,100%,100%);fill-opacity:1;" d="M 64.511719 99.390625 L 75.511719 99.390625 L 75.511719 115.390625 L 64.511719 115.390625 Z M 64.511719 99.390625 "/>
<g style="fill:rgb(100%,0%,0%);fill-opacity:1;">
  <use xlink:href="#glyph0-1" x="64.511719" y="111.766602"/>
</g>
<path style="fill:none;stroke-width:1.2;stroke-linecap:butt;stroke-linejoin:miter;stroke:rgb(0%,0%,0%);stroke-opacity:1;stroke-miterlimit:10;" d="M 67.789062 163.753906 L 51.519531 163.253906 "/>
<path style="fill:none;stroke-width:1.2;stroke-linecap:butt;stroke-linejoin:miter;stroke:rgb(100%,0%,0%);stroke-opacity:1;stroke-miterlimit:10;" d="M 51.519531 163.253906 L 35.25 162.757812 "/>
<path style="fill:none;stroke-width:1.2;stroke-linecap:butt;stroke-linejoin:miter;stroke:rgb(0%,0%,0%);stroke-opacity:1;stroke-miterlimit:10;" d="M 67.789062 163.753906 L 83.199219 192.429688 "/>
<path style=" stroke:none;fill-rule:nonzero;fill:rgb(100%,100%,100%);fill-opacity:1;" d="M 14.25 154.757812 L 35.25 154.757812 L 35.25 170.757812 L 14.25 170.757812 Z M 14.25 154.757812 "/>
<g style="fill:rgb(100%,0%,0%);fill-opacity:1;">
  <use xlink:href="#glyph0-3" x="14.25" y="167.133789"/>
  <use xlink:href="#glyph0-1" x="24.272461" y="167.133789"/>
</g>
<path style="fill:none;stroke-width:1.2;stroke-linecap:butt;stroke-linejoin:miter;stroke:rgb(0%,0%,0%);stroke-opacity:1;stroke-miterlimit:10;" d="M 83.199219 192.429688 L 115.738281 193.425781 "/>
<path style="fill:none;stroke-width:1.2;stroke-linecap:butt;stroke-linejoin:miter;stroke:rgb(0%,0%,0%);stroke-opacity:1;stroke-miterlimit:10;" d="M 86.6875 184.871094 L 112.71875 185.667969 "/>
<path style="fill:none;stroke-width:1.2;stroke-linecap:butt;stroke-linejoin:miter;stroke:rgb(0%,0%,0%);stroke-opacity:1;stroke-miterlimit:10;" d="M 180.816406 195.414062 L 175.316406 210.734375 "/>
<path style="fill:none;stroke-width:1.2;stroke-linecap:butt;stroke-linejoin:miter;stroke:rgb(100%,0%,0%);stroke-opacity:1;stroke-miterlimit:10;" d="M 175.316406 210.734375 L 169.816406 226.054688 "/>
<path style="fill:none;stroke-width:1.2;stroke-linecap:butt;stroke-linejoin:miter;stroke:rgb(100%,0%,0%);stroke-opacity:1;stroke-miterlimit:10;" d="M 169.816406 226.054688 L 182.6875 236.019531 "/>
<path style="fill:none;stroke-width:1.2;stroke-linecap:butt;stroke-linejoin:miter;stroke:rgb(0%,0%,0%);stroke-opacity:1;stroke-miterlimit:10;" d="M 182.6875 236.019531 L 195.554688 245.984375 "/>
<path style=" stroke:none;fill-rule:nonzero;fill:rgb(100%,100%,100%);fill-opacity:1;" d="M 164.816406 218.054688 L 175.816406 218.054688 L 175.816406 234.054688 L 164.816406 234.054688 Z M 164.816406 218.054688 "/>
<g style="fill:rgb(100%,0%,0%);fill-opacity:1;">
  <use xlink:href="#glyph0-1" x="164.816406" y="230.430664"/>
</g>
<path style="fill:none;stroke-width:1.2;stroke-linecap:butt;stroke-linejoin:miter;stroke:rgb(0%,0%,0%);stroke-opacity:1;stroke-miterlimit:10;" d="M 235.78125 110.976562 L 231.910156 101.023438 "/>
<path style="fill:none;stroke-width:1.2;stroke-linecap:butt;stroke-linejoin:miter;stroke:rgb(100%,0%,0%);stroke-opacity:1;stroke-miterlimit:10;" d="M 231.910156 101.023438 L 228.039062 91.070312 "/>
<path style="fill:none;stroke-width:1.2;stroke-linecap:butt;stroke-linejoin:miter;stroke:rgb(0%,0%,0%);stroke-opacity:1;stroke-miterlimit:10;" d="M 228.640625 113.753906 L 224.769531 103.800781 "/>
<path style="fill:none;stroke-width:1.2;stroke-linecap:butt;stroke-linejoin:miter;stroke:rgb(100%,0%,0%);stroke-opacity:1;stroke-miterlimit:10;" d="M 224.769531 103.800781 L 220.898438 93.847656 "/>
<path style="fill:none;stroke-width:1.2;stroke-linecap:butt;stroke-linejoin:miter;stroke:rgb(0%,0%,0%);stroke-opacity:1;stroke-miterlimit:10;" d="M 232.210938 112.367188 L 248.480469 112.863281 "/>
<path style="fill:none;stroke-width:1.2;stroke-linecap:butt;stroke-linejoin:miter;stroke:rgb(100%,0%,0%);stroke-opacity:1;stroke-miterlimit:10;" d="M 248.480469 112.863281 L 264.75 113.359375 "/>
<path style=" stroke:none;fill-rule:nonzero;fill:rgb(100%,100%,100%);fill-opacity:1;" d="M 213.46875 84.457031 L 224.46875 84.457031 L 224.46875 100.457031 L 213.46875 100.457031 Z M 213.46875 84.457031 "/>
<g style="fill:rgb(100%,0%,0%);fill-opacity:1;">
  <use xlink:href="#glyph0-1" x="213.46875" y="96.833008"/>
</g>
<path style=" stroke:none;fill-rule:nonzero;fill:rgb(100%,100%,100%);fill-opacity:1;" d="M 257.75 103.859375 L 272.75 103.859375 L 272.75 122.859375 L 257.75 122.859375 Z M 257.75 103.859375 "/>
<g style="fill:rgb(100%,0%,0%);fill-opacity:1;">
  <use xlink:href="#glyph0-1" x="257.75" y="119.054688"/>
</g>
<g style="fill:rgb(100%,0%,0%);fill-opacity:1;">
  <use xlink:href="#glyph1-2" x="268.240234" y="114.171875"/>
</g>
</g>
</svg>

<svg xmlns="http://www.w3.org/2000/svg" xmlns:xlink="http://www.w3.org/1999/xlink" width="300pt" height="300pt" viewBox="0 0 300 300"><defs><symbol overflow="visible"><path d="M.64 2.297v-11.47h6.5v11.47zm.735-.72h5.047V-8.436H1.375zm0 0"/></symbol><symbol overflow="visible" id="a"><path d="M5.125-8.61c-.938 0-1.684.352-2.234 1.047-.542.688-.812 1.633-.812 2.83 0 1.198.27 2.147.813 2.842.55.687 1.297 1.03 2.235 1.03.926 0 1.66-.343 2.203-1.03.55-.696.828-1.645.828-2.844 0-1.196-.277-2.14-.828-2.829-.543-.695-1.277-1.046-2.203-1.046zm0-1.046c1.32 0 2.38.45 3.172 1.344.8.898 1.203 2.09 1.203 3.578 0 1.5-.402 2.7-1.203 3.593C7.504-.255 6.445.186 5.125.186c-1.336 0-2.402-.44-3.203-1.328C1.13-2.036.734-3.235.734-4.735c0-1.49.395-2.68 1.188-3.579.8-.894 1.867-1.343 3.203-1.343zm0 0"/></symbol><symbol overflow="visible" id="b"><path d="M1.28-9.484H3l4.203 7.937v-7.937h1.25V0H6.72L2.515-7.922V0H1.28zm0 0"/></symbol><symbol overflow="visible" id="e"><path d="M1.28-9.484h1.282v3.89H7.22v-3.89H8.5V0H7.22v-4.516H2.562V0H1.28zm0 0"/></symbol><symbol overflow="visible"><path d="M.547 1.938V-7.75h5.5v9.688zm.625-.61h4.266v-8.47H1.171zm0 0"/></symbol><symbol overflow="visible" id="c"><path d="M5.063-6.89v2.984h2.984v.922H5.062V0h-.906v-2.984H1.172v-.922h2.984V-6.89zm0 0"/></symbol><symbol overflow="visible" id="d"><path d="M.53-3.453h2.907v.875H.53zm0 0"/></symbol></defs><g><path fill="#fff" d="M0 0h300v300H0z"/><path d="M222.465 227.664l-4.555-15.63" stroke-width="1.2" stroke="#f00" stroke-miterlimit="10" fill="none"/><path d="M217.91 212.035l-4.555-15.625M195.555 245.984l13.457-9.16" stroke-width="1.2" stroke="#000" stroke-miterlimit="10" fill="none"/><path d="M209.012 236.824l13.453-9.16" stroke-width="1.2" stroke="#f00" stroke-miterlimit="10" fill="none"/><path d="M217.465 219.664h11v16h-11zm0 0" fill="#fff"/><use xlink:href="#a" x="217.465" y="232.04" fill="#f00"/><path d="M213.355 196.41l17.133-27.683M208.555 189.61l13.707-22.145M180.816 195.414l32.54.996M230.488 168.727l-15.41-28.68M215.078 140.047l-32.54-.992M211.59 147.605l-26.03-.796M215.078 140.047l17.133-27.68M182.54 139.055l-17.13 27.68M167.133 110.375l15.406 28.68M165.41 166.734l-32.543-.992M165.41 166.734l15.406 28.68M173.695 165.977l12.328 22.945M132.867 165.742l-15.406-28.68M124.582 166.5l-12.328-22.94M115.738 193.426l17.13-27.684M117.46 137.063l17.13-27.68M117.46 137.063l-32.538-.993M134.59 109.383l32.543.992M137.613 117.137l26.032.797M167.133 110.375l8.562-13.84" stroke-width="1.2" stroke="#000" stroke-miterlimit="10" fill="none"/><path d="M175.695 96.535l8.567-13.844M184.613 86.508l10.633-.977" stroke-width="1.2" stroke="#00f" stroke-miterlimit="10" fill="none"/><path d="M195.246 85.53l10.637-.98" stroke-width="1.2" stroke="#f00" stroke-miterlimit="10" fill="none"/><path d="M183.91 78.88l10.637-.978" stroke-width="1.2" stroke="#00f" stroke-miterlimit="10" fill="none"/><path d="M194.547 77.902l10.633-.976" stroke-width="1.2" stroke="#f00" stroke-miterlimit="10" fill="none"/><path d="M184.262 82.69l-7.703-14.335" stroke-width="1.2" stroke="#00f" stroke-miterlimit="10" fill="none"/><path d="M176.56 68.355l-7.705-14.34" stroke-width="1.2" stroke="#f00" stroke-miterlimit="10" fill="none"/><path d="M174.262 73.19h20v19h-20zm0 0" fill="#fff"/><use xlink:href="#b" x="174.262" y="88.387" fill="#00f"/><use xlink:href="#c" x="184.231" y="83.504" fill="#00f"/><path d="M200.53 72.738h11v16h-11zm0 0" fill="#fff"/><use xlink:href="#a" x="200.531" y="85.114" fill="#f00"/><path d="M153.855 44.516h15v19h-15zm0 0" fill="#fff"/><use xlink:href="#d" x="153.855" y="54.828" fill="#f00"/><use xlink:href="#a" x="157.864" y="59.711" fill="#f00"/><path d="M84.922 136.07l-7.707-14.34" stroke-width="1.2" stroke="#000" stroke-miterlimit="10" fill="none"/><path d="M77.215 121.73l-7.703-14.34" stroke-width="1.2" stroke="#f00" stroke-miterlimit="10" fill="none"/><path d="M84.922 136.07L67.79 163.754M89.723 142.867l-13.707 22.15" stroke-width="1.2" stroke="#000" stroke-miterlimit="10" fill="none"/><path d="M69.512 107.39l8.566-13.84" stroke-width="1.2" stroke="#f00" stroke-miterlimit="10" fill="none"/><path d="M78.078 93.55l8.567-13.84" stroke-width="1.2" stroke="#000" stroke-miterlimit="10" fill="none"/><path d="M64.512 99.39h11v16h-11zm0 0" fill="#fff"/><use xlink:href="#a" x="64.512" y="111.767" fill="#f00"/><path d="M67.79 163.754l-16.27-.5" stroke-width="1.2" stroke="#000" stroke-miterlimit="10" fill="none"/><path d="M51.52 163.254l-16.27-.496" stroke-width="1.2" stroke="#f00" stroke-miterlimit="10" fill="none"/><path d="M67.79 163.754L83.2 192.43" stroke-width="1.2" stroke="#000" stroke-miterlimit="10" fill="none"/><path d="M14.25 154.758h21v16h-21zm0 0" fill="#fff"/><g fill="#f00"><use xlink:href="#e" x="14.25" y="167.134"/><use xlink:href="#a" x="24.272" y="167.134"/></g><path d="M83.2 192.43l32.538.996M86.688 184.87l26.03.798M180.816 195.414l-5.5 15.32" stroke-width="1.2" stroke="#000" stroke-miterlimit="10" fill="none"/><path d="M175.316 210.734l-5.5 15.32M169.816 226.055l12.87 9.965" stroke-width="1.2" stroke="#f00" stroke-miterlimit="10" fill="none"/><path d="M182.688 236.02l12.867 9.964" stroke-width="1.2" stroke="#000" stroke-miterlimit="10" fill="none"/><path d="M164.816 218.055h11v16h-11zm0 0" fill="#fff"/><use xlink:href="#a" x="164.816" y="230.431" fill="#f00"/><path d="M235.78 110.977l-3.87-9.954" stroke-width="1.2" stroke="#000" stroke-miterlimit="10" fill="none"/><path d="M231.91 101.023l-3.87-9.953" stroke-width="1.2" stroke="#f00" stroke-miterlimit="10" fill="none"/><path d="M228.64 113.754l-3.87-9.953" stroke-width="1.2" stroke="#000" stroke-miterlimit="10" fill="none"/><path d="M224.77 103.8l-3.872-9.952" stroke-width="1.2" stroke="#f00" stroke-miterlimit="10" fill="none"/><path d="M232.21 112.367l16.27.496" stroke-width="1.2" stroke="#000" stroke-miterlimit="10" fill="none"/><path d="M248.48 112.863l16.27.496" stroke-width="1.2" stroke="#f00" stroke-miterlimit="10" fill="none"/><path d="M213.47 84.457h11v16h-11zm0 0" fill="#fff"/><use xlink:href="#a" x="213.469" y="96.833" fill="#f00"/><path d="M257.75 103.86h15v19h-15zm0 0" fill="#fff"/><use xlink:href="#a" x="257.75" y="119.055" fill="#f00"/><use xlink:href="#d" x="268.24" y="114.172" fill="#f00"/></g></svg>
